X:2058 
T:Greenlands icy mountains
C:Traditional carol
O:Isle of Man
Z:Clague collection
B:Kiaull Vannin #58
N:See also Carvalyn Gailckagh, Moore et al., p.7.
M:4/4 
L:1/4 
K:G 
E2|EE GA|B2 BB|c B/A/ G F/E/|D2 B2|c B/A/ GF|E3/2D/ EF|GA BB/A/|G2 G2|
GA B/c/ d|e2 Bd|c B/A/ GF/E/|D2 B2|Be dd|e2 BB/A/|G B A/G/F|E2|| 

